app/assets/icons/polaris/VocabularyMajor.svg

<svg viewBox="0 0 20 20" xmlns="http://www.w3.org/2000/svg"><path d="M20 1.5a1.5 1.5 0 0 0-1.5-1.5h-6.5c-.768 0-1.469.29-2 .766a2.987 2.987 0 0 0-2-.766h-6.5a1.5 1.5 0 0 0-1.5 1.5v15a1.5 1.5 0 0 0 1.5 1.5h6.5a1 1 0 0 1 1 1 1 1 0 1 0 2 0 1 1 0 0 1 1-1h6.5a1.5 1.5 0 0 0 1.5-1.5v-15zm-2 14.5h-6c-.352 0-.687.067-1 .179v-13.179a1 1 0 0 1 1-1h6v14zm-10 0h-6v-14h6a1 1 0 0 1 1 1v13.179a2.959 2.959 0 0 0-1-.179z"/><path d="M4 4h3v2h-3zm9 0h3v2h-3zm-9 4h3v2h-3zm9 0h3v2h-3zm-9 4h3v2h-3z"/></svg>

<svg viewBox="0 0 20 20" xmlns="http://www.w3.org/2000/svg"><path d="M20 1.5A1.5 1.5 0 0 0 18.5 0H12c-.768 0-1.469.29-2 .766A2.987 2.987 0 0 0 8 0H1.5A1.5 1.5 0 0 0 0 1.5v15A1.5 1.5 0 0 0 1.5 18H8a1 1 0 0 1 1 1 1 1 0 1 0 2 0 1 1 0 0 1 1-1h6.5a1.5 1.5 0 0 0 1.5-1.5v-15zM18 16h-6c-.352 0-.687.067-1 .179V3a1 1 0 0 1 1-1h6v14zM8 16H2V2h6a1 1 0 0 1 1 1v13.179A2.959 2.959 0 0 0 8 16z"/><path d="M4 4h3v2H4zm9 0h3v2h-3zM4 8h3v2H4zm9 0h3v2h-3zm-9 4h3v2H4z"/></svg>
